X: 1
T: The Glen Road To Carrick
R: reel
M: 4/4
L: 1/8
K: Dmix
AD~D2 AGFE|AD~D2 BGBd|AD~D2 AGFA|1GEcE GABd:|2GEcE GcGE||
D2dA F2AF|Dd^cd ABAF|D2dA F2AF|GEcE GcGE|
D2dA F2AF|Dd^cd A2B=c|cBBA AGAF|GEcE GBeg|
|:fd~d2 Addg|fdfg a2(3gag|fd~d2 Adfd|ecef gaag:|
|:fde^c dBAG|FADF A2Bc|cBBA AGAF|1GEcE GBeg|2GEcE GAB^c:|
|:dD~D2 AD~D2|dD~D2 A2Bc|dD~D2 AGFA|GEcE GAB^c|
dD~D2 AD~D2|dD~D2 A2Bc|cBBA AGAF|1GEcE GAB^c:|2GEcE GcGE||"fine"D4


Tune 2285	Setting 26901

